X:1
T:Peter and John
T:Christopher Tye
T:Source : The Actes of the Apostles---Chapter III---1553. Editor : André Vierendeels (10/01/17).
T:Peter and John
T:©
T:©
T:©
C:Christopher Tye
Z:©
%%score [ 1 2 [ 3 4 ] ]
L:1/8
Q:1/4=122
M:4/4
K:F
V:1 treble nm="Soprano" snm="S"
V:2 treble nm="Alto" snm="A"
V:3 treble-8 nm="Tenor 1" snm="T 1"
V:4 treble-8 nm="Tenor 2" snm="T 2"
V:1
 z2 A2 A2 c2 | A2 c2 B3 B | A2 A2 c3 c | d2 e2 ^c2 A2 |"^-natural" c3 c G2 G2 | B3 B A4 | %6
w: Pe- ter and|John, they toke theyr|way, the tem- ple|up in- to: a-|boute the nynth houre|for to praye,|
 z2 A3 G BG | A2 f2 e2 d2 | ^cd =Bc d4 | z2 A2 B3 B | A2 A2 G3 G | ^F2 d2 =B2 c2 | A2 A2 A4 | %13
w: for to _ _|praye, as they were|went _ to _ do,|a cer- tayne|man, both halt and|lame, even from his|byrth ryght poore,|
 z2 d2 c3 B | A2 A2 A2 G2 |"^-natural" A2 c2 c BAG | A3 G ^F4- | F8 |] %18
w: they brought and|layd, day- ly the|same, even at the _ tem-|* ple dore.|_|
V:2
 z2 F2 F2 G2 | F2 A2 F2 G2 | E2 F2 G3 G | A2 =B2 A4- | A4 z2 E2 | G3 G F2 D2 | G2 F3 E D2 | %7
w: Pe- ter and|John, they toke theyr|way, the tem- ple|up in- to:|_ a-|boute the nynth houre|for to _ _|
 E2 c2 c2 A2 | A2 G2 A4 |"^-natural" z2 F2 F3 F | F2 F2 D2 D2 | D2 A2 G3 G | F2 F2 E4 | %13
w: praye, as they were|went to do,|a cer- tayne|man, both halt and|lame, even from his|byrth ryght poore,|
 z2 F2 F3 D | C2 C2 D2 D2 | E2 A2 GF ED | E2 E2 D4- | D8 |] %18
w: they brought and|layd day- ly the|same, even at- * the _|tem- ple dore|_|
V:3
 z2 d2 d2 e2 | f3 e d3 d | ^c2 d2 e3 e | f2 g2 a4 | z8 | z2 d2 f3 f | e2 f2 d2 d2 | ^c2 a2 g2 f2 | %8
w: Pe- ter and|John, they toke theyr|way, the tem- ple|up in- to:||a- boute the|nynth houre for to|praye, as they were|
 e2 g2 ^f4 | z2 d2 d3 d | c2 c2 B3 B |"^-natural" A2 f2 e3 e | d2 d2 ^c4 | z2 a2 a3 g | %14
w: went to do,|a cer- tayne|man, both halt and|lame, even from his|byrth ryght poore,|they brought and|
 f2 e2 d2 d2 | ^c2 f2 ed- d2 | d2 ^c2 d4- | d8 |] %18
w: layd day- ly the|same, even at the _|tem- ple dore.|_|
V:4
 z2 d2 d2 c2 | d2 A2 B2 G2 | A2 d2 c3 c | f2 e2 A4 |"^-natural" z2 A2 c3 c | G2 G2 d2 d2 | %6
w: Pe- ter and|John, they toke theyr|way, the tem- ple|up in- to:|a- boute the|nynth houre for to|
 c2 F2 B4 | A2 F2 c2 d2 | A2 e2 d4 | z2 d2 B3 B | F2 F2 G2 G2 | D2 D2 E2 C2 | D2 D2 A4 | %13
w: praye, for to|praye, as they were|went to do,|a cer- tayne|man, both halt and|lame, even from his|byrth ryght poore,|
 z2 F2 F3 G | A2 c2 B2 B2 | A2 F2 G2 B2 | A2 A2 D4- | D8 |] %18
w: they brought and|layd day- ly the|same, even at the|tem- ple dore.|_|

